assets/icons/SHOP.CO.svg

<svg width="125" height="19" viewBox="0 0 125 19" fill="none" xmlns="http://www.w3.org/2000/svg">
<path d="M8.96703 18.816C2.87703 18.795 3.12464e-05 16.905 0.147031 12.327H5.37603C5.43903 13.524 6.44703 14.259 8.96703 14.28C11.193 14.301 12.222 13.671 12.222 12.852C12.222 12.285 11.907 11.697 10.185 11.445L7.91703 11.088C4.57803 10.542 0.567031 10.143 0.567031 5.628C0.567031 2.142 3.40203 8.27789e-07 9.00903 8.27789e-07C14.07 8.27789e-07 17.598 1.407 17.493 6.447H12.306C12.096 5.271 11.109 4.536 8.88303 4.536C6.95103 4.536 6.15303 5.124 6.15303 5.922C6.15303 6.426 6.46803 7.035 7.81203 7.245L9.68103 7.56C13.188 8.148 17.997 8.253 17.997 13.083C17.997 16.926 15.015 18.837 8.96703 18.816ZM31.7609 0.588002H37.5779V18.228H31.7609V11.844H24.9149V18.228H19.0979V0.588002H24.9149V6.972H31.7609V0.588002ZM48.7371 18.816C42.6681 18.816 38.7411 15.057 38.7411 9.408C38.7411 3.759 42.6681 8.27789e-07 48.7371 8.27789e-07C54.8061 8.27789e-07 58.7331 3.759 58.7331 9.408C58.7331 15.057 54.8061 18.816 48.7371 18.816ZM48.7371 13.797C51.0471 13.797 52.9581 12.201 52.9581 9.408C52.9581 6.615 51.0471 5.019 48.7371 5.019C46.4271 5.019 44.5161 6.615 44.5161 9.408C44.5161 12.201 46.4271 13.797 48.7371 13.797ZM59.9002 18.228V0.588002H69.9172C74.7262 0.588002 77.5822 2.73 77.5822 7.476C77.5822 12.222 74.7262 14.364 69.9382 14.364H65.7172V18.228H59.9002ZM65.7172 9.534H69.4132C70.8202 9.534 71.7232 8.841 71.7232 7.476C71.7232 6.111 70.8202 5.418 69.4342 5.418H65.7172V9.534ZM80.4924 18.564C78.9174 18.564 77.5944 17.262 77.5944 15.708C77.5944 14.154 78.9174 12.852 80.4924 12.852C82.0674 12.852 83.3904 14.154 83.3904 15.708C83.3904 17.262 82.0674 18.564 80.4924 18.564ZM94.4511 18.816C88.5081 18.816 84.5391 15.057 84.5391 9.408C84.5391 3.759 88.5081 8.27789e-07 94.4511 8.27789e-07C98.7561 8.27789e-07 103.166 1.89 103.754 7.854H98.2101C97.7271 5.922 96.3621 5.019 94.4511 5.019C92.1411 5.019 90.3141 6.741 90.3141 9.408C90.3141 12.075 92.1411 13.797 94.4511 13.797C96.3621 13.797 97.7271 12.894 98.2101 10.92H103.754C103.166 16.926 98.7981 18.816 94.4511 18.816ZM114.813 18.816C108.744 18.816 104.817 15.057 104.817 9.408C104.817 3.759 108.744 8.27789e-07 114.813 8.27789e-07C120.882 8.27789e-07 124.809 3.759 124.809 9.408C124.809 15.057 120.882 18.816 114.813 18.816ZM114.813 13.797C117.123 13.797 119.034 12.201 119.034 9.408C119.034 6.615 117.123 5.019 114.813 5.019C112.503 5.019 110.592 6.615 110.592 9.408C110.592 12.201 112.503 13.797 114.813 13.797Z" fill="black"/>
</svg>

<svg xmlns="http://www.w3.org/2000/svg" width="125" height="19" fill="none" viewBox="0 0 125 19"><path fill="#000" d="M8.967 18.816C2.877 18.795 0 16.905.147 12.327h5.229c.063 1.197 1.071 1.932 3.591 1.953 2.226.021 3.255-.609 3.255-1.428 0-.567-.315-1.155-2.037-1.407l-2.268-.357c-3.339-.546-7.35-.945-7.35-5.46C.567 2.142 3.402 0 9.009 0c5.061 0 8.589 1.407 8.484 6.447h-5.187c-.21-1.176-1.197-1.911-3.423-1.911-1.932 0-2.73.588-2.73 1.386 0 .504.315 1.113 1.659 1.323l1.869.315c3.507.588 8.316.693 8.316 5.523 0 3.843-2.982 5.754-9.03 5.733M31.761.588h5.817v17.64H31.76v-6.384h-6.846v6.384h-5.817V.588h5.817v6.384h6.846zm16.976 18.228c-6.069 0-9.996-3.759-9.996-9.408S42.668 0 48.737 0s9.996 3.759 9.996 9.408-3.927 9.408-9.996 9.408m0-5.019c2.31 0 4.221-1.596 4.221-4.389s-1.91-4.389-4.22-4.389-4.222 1.596-4.222 4.389 1.911 4.389 4.221 4.389M59.9 18.228V.588h10.017c4.81 0 7.665 2.142 7.665 6.888s-2.856 6.888-7.644 6.888h-4.22v3.864zm5.817-8.694h3.696c1.407 0 2.31-.693 2.31-2.058s-.903-2.058-2.289-2.058h-3.717zm14.775 9.03c-1.575 0-2.898-1.302-2.898-2.856s1.323-2.856 2.898-2.856 2.898 1.302 2.898 2.856-1.323 2.856-2.898 2.856m13.96.252c-5.944 0-9.913-3.759-9.913-9.408S88.51 0 94.451 0c4.305 0 8.715 1.89 9.303 7.854H98.21c-.483-1.932-1.848-2.835-3.759-2.835-2.31 0-4.137 1.722-4.137 4.389s1.827 4.389 4.137 4.389c1.911 0 3.276-.903 3.76-2.877h5.543c-.588 6.006-4.956 7.896-9.303 7.896m20.361 0c-6.069 0-9.996-3.759-9.996-9.408S108.744 0 114.813 0s9.996 3.759 9.996 9.408-3.927 9.408-9.996 9.408m0-5.019c2.31 0 4.221-1.596 4.221-4.389s-1.911-4.389-4.221-4.389-4.221 1.596-4.221 4.389 1.911 4.389 4.221 4.389"/></svg>
